packages/components/icons/assets/MessageFill.svg

<svg viewBox="0 0 24 24" xmlns="http://www.w3.org/2000/svg" data-title="MessageFill" fill="currentColor" stroke="none">
  <path fill-rule="evenodd" clip-rule="evenodd" d="M2.00215 6.1766C2.00836 3.84123 3.90176 2 6.21568 2H17.7173C20.082 2 22 3.91533 22 6.28117V20.9844C22 21.3687 21.7831 21.72 21.4396 21.8923C21.0961 22.0645 20.6847 22.0281 20.3768 21.7982L16.7128 19.0628H6.29652C3.94283 19.0628 2.02704 17.1657 2.01701 14.8073C2.00628 12.2824 1.99524 8.77972 2.00215 6.1766ZM16.9006 8.19668L7.09942 8.1967C6.53852 8.1967 6.08382 7.742 6.08382 7.1811C6.08381 6.6202 6.53852 6.16549 7.09942 6.16549L16.9006 6.16547C17.4615 6.16547 17.9162 6.62017 17.9162 7.18107C17.9162 7.74198 17.4615 8.19668 16.9006 8.19668ZM16.9006 11.3821L7.09942 11.3821C6.53852 11.3821 6.08382 10.9274 6.08382 10.3665C6.08381 9.80559 6.53852 9.35089 7.09942 9.35089L16.9006 9.35087C17.4615 9.35086 17.9162 9.80556 17.9162 10.3665C17.9162 10.9274 17.4615 11.3821 16.9006 11.3821ZM6.08382 13.6335C6.08382 13.0726 6.53852 12.6179 7.09942 12.6179H13.6335C14.1944 12.6179 14.6491 13.0726 14.6491 13.6335C14.6491 14.1944 14.1944 14.6491 13.6335 14.6491H7.09942C6.53852 14.6491 6.08382 14.1944 6.08382 13.6335Z"/>
</svg>

<svg viewBox="0 0 24 24" xmlns="http://www.w3.org/2000/svg" data-title="MessageFill" fill="currentColor" stroke="none">
  <path fill-rule="evenodd" d="m2,6.18c0-2.34,1.9-4.18,4.21-4.18h11.5c2.36,0,4.28,1.92,4.28,4.28v14.7c0,.38-.22.74-.56.91-.34.17-.75.14-1.06-.09l-3.66-2.74H6.3c-2.35,0-4.27-1.9-4.28-4.26-.01-2.52-.02-6.03-.01-8.63Zm14.9,2.02H7.1c-.56,0-1.02-.45-1.02-1.02,0-.56.45-1.02,1.02-1.02h9.8c.56,0,1.02.45,1.02,1.02s-.45,1.02-1.02,1.02Zm0,3.19H7.1c-.56,0-1.02-.45-1.02-1.02,0-.56.45-1.02,1.02-1.02h9.8c.56,0,1.02.45,1.02,1.02s-.45,1.02-1.02,1.02Zm-10.82,2.25c0-.56.45-1.02,1.02-1.02h6.53c.56,0,1.02.45,1.02,1.02s-.45,1.02-1.02,1.02h-6.53c-.56,0-1.02-.45-1.02-1.02Z"/>
</svg>
